X:1
T:Handy, LM
T:Joseph Perry Holbrook (1822-1888)
T:Handy, LM
T:Public Domain
C:Joseph Perry Holbrook (1822-1888)
Z:Public Domain
%%score 1 2
L:1/8
M:3/4
K:Eb
V:1 treble 
V:2 bass 
V:1
 [EG]2 | [EG]>[FA] [GB]3 [Ge] | [Ac]>[GB] [EG]3 [EG] | [GB]>[EG] [DF]3 [EG] | %4
 [DF]>[EG] [FA]2 [Dc][EB] | [EG]>[FA] [GB]3 [Ee] | [Ec]>[EB] [EG]3 [GB] | [GB]>[_Gc] [Fd]3 [Fe] | %8
 [Ec]>[Ec] [DB]3 [DB] | [Dc]>[DB] [DF]3 [FA] | [EG]>[FA] [GB]3 [EG] | [EG]>[B,F] [B,E]3 [B,E] | %12
 [CE]4 [_CF]2 | [B,G]4 |] %14
V:2
 [E,B,]2 | [E,B,]>[E,B,] [E,B,]3 [E,B,] | [E,C]>[E,E] [E,B,]3 [E,B,] | %3
 [B,,E]>[B,,B,] [B,,B,]3 [B,,B,] | [B,,B,]>[B,,B,] [B,,B,]3 [E,G,] | [E,B,]>[E,B,] [E,B,]3 [E,G,] | %6
 [E,A,]>[E,G,] [E,B,]3 [E,B,] | [E,E]>[E,C] [F,B,]3 [F,C] | [F,=A,]>[F,A,] [B,,B,]3 [B,,B,] | %9
 [B,,F,]>[B,,F,] [B,,B,]3 [B,,B,] | [E,B,]>[E,B,] [E,B,]3 [E,B,] | [E,B,]>[E,A,] [E,G,]3 [E,G,] | %12
 [A,,A,]4 [A,,A,]2 | [E,G,]4 |] %14

